svg/s/BQ-BO.svg

<svg width="16" height="12" viewBox="0 0 16 12" fill="none" xmlns="http://www.w3.org/2000/svg">
<g clip-path="url(#clip0_270_54963)">
<rect width="16" height="12" fill="white"/>
<path fill-rule="evenodd" clip-rule="evenodd" d="M0 0H16V12H0V0Z" fill="white"/>
<path fill-rule="evenodd" clip-rule="evenodd" d="M0 5.46667V0H8L0 5.46667Z" fill="#FEDA00"/>
<path fill-rule="evenodd" clip-rule="evenodd" d="M0 12H16.0045V0L0 12Z" fill="#00268D"/>
<mask id="path-4-inside-1_270_54963" fill="white">
<path fill-rule="evenodd" clip-rule="evenodd" d="M4.67667 2.5L4.9401 3.06561C6.01301 3.19364 6.8488 4.09383 6.87598 5.19466L7.35333 5.43333L6.83182 5.69409C6.64501 6.60547 5.89461 7.31143 4.96075 7.43183L4.67667 8L4.39258 7.43183C3.45872 7.31143 2.70832 6.60547 2.52151 5.69409L2 5.43333L2.47735 5.19466C2.50438 4.09995 3.33105 3.20366 4.39535 3.06782L4.67667 2.5Z"/>
</mask>
<path fill-rule="evenodd" clip-rule="evenodd" d="M4.67667 2.5L4.9401 3.06561C6.01301 3.19364 6.8488 4.09383 6.87598 5.19466L7.35333 5.43333L6.83182 5.69409C6.64501 6.60547 5.89461 7.31143 4.96075 7.43183L4.67667 8L4.39258 7.43183C3.45872 7.31143 2.70832 6.60547 2.52151 5.69409L2 5.43333L2.47735 5.19466C2.50438 4.09995 3.33105 3.20366 4.39535 3.06782L4.67667 2.5Z" fill="white"/>
<path d="M4.9401 3.06561L4.48686 3.27672L4.60441 3.5291L4.88086 3.56209L4.9401 3.06561ZM4.67667 2.5L5.12992 2.2889L4.69058 1.34564L4.22864 2.27803L4.67667 2.5ZM6.87598 5.19466L6.37614 5.207L6.38355 5.50746L6.65238 5.64187L6.87598 5.19466ZM7.35333 5.43333L7.57694 5.88055L8.47137 5.43333L7.57694 4.98612L7.35333 5.43333ZM6.83182 5.69409L6.60822 5.24687L6.39082 5.35558L6.34201 5.59369L6.83182 5.69409ZM4.96075 7.43183L4.89682 6.93593L4.63265 6.96999L4.51354 7.20822L4.96075 7.43183ZM4.67667 8L4.22945 8.22361L4.67667 9.11803L5.12388 8.22361L4.67667 8ZM4.39258 7.43183L4.83979 7.20822L4.72068 6.96999L4.45651 6.93593L4.39258 7.43183ZM2.52151 5.69409L3.01132 5.59369L2.96252 5.35558L2.74512 5.24687L2.52151 5.69409ZM2 5.43333L1.77639 4.98612L0.881966 5.43333L1.77639 5.88055L2 5.43333ZM2.47735 5.19466L2.70096 5.64187L2.96978 5.50746L2.9772 5.207L2.47735 5.19466ZM4.39535 3.06782L4.45865 3.56379L4.72443 3.52987L4.84337 3.28979L4.39535 3.06782ZM5.39335 2.85451L5.12992 2.2889L4.22342 2.7111L4.48686 3.27672L5.39335 2.85451ZM7.37583 5.18232C7.34246 3.83068 6.31669 2.72633 4.99935 2.56913L4.88086 3.56209C5.70933 3.66095 6.35515 4.35698 6.37614 5.207L7.37583 5.18232ZM7.57694 4.98612L7.09959 4.74745L6.65238 5.64187L7.12973 5.88055L7.57694 4.98612ZM7.05543 6.1413L7.57694 5.88055L7.12973 4.98612L6.60822 5.24687L7.05543 6.1413ZM5.02469 7.92772C6.17196 7.77981 7.09225 6.91363 7.32164 5.79449L6.34201 5.59369C6.19778 6.29732 5.61727 6.84305 4.89682 6.93593L5.02469 7.92772ZM4.51354 7.20822L4.22945 7.77639L5.12388 8.22361L5.40797 7.65543L4.51354 7.20822ZM5.12388 7.77639L4.83979 7.20822L3.94537 7.65543L4.22945 8.22361L5.12388 7.77639ZM2.03169 5.79449C2.26109 6.91363 3.18138 7.77981 4.32865 7.92772L4.45651 6.93593C3.73606 6.84305 3.15555 6.29732 3.01132 5.59369L2.03169 5.79449ZM1.77639 5.88055L2.2979 6.1413L2.74512 5.24687L2.22361 4.98612L1.77639 5.88055ZM2.25374 4.74745L1.77639 4.98612L2.22361 5.88055L2.70096 5.64187L2.25374 4.74745ZM4.33204 2.57184C3.02528 2.73863 2.01069 3.83817 1.9775 5.18232L2.9772 5.207C2.99807 4.36173 3.63682 3.66869 4.45865 3.56379L4.33204 2.57184ZM4.22864 2.27803L3.94732 2.84585L4.84337 3.28979L5.12469 2.72197L4.22864 2.27803Z" fill="black" mask="url(#path-4-inside-1_270_54963)"/>
<path fill-rule="evenodd" clip-rule="evenodd" d="M4.68789 4.15002L4.36338 4.69455H3.72333L4.04248 5.26664L3.72333 5.81539H4.36338L4.68789 6.37526L5.01736 5.81539H5.65165L5.3403 5.26664L5.65165 4.69455H5.01736L4.68789 4.15002Z" fill="#F00A17"/>
</g>
<defs>
<clipPath id="clip0_270_54963">
<rect width="16" height="12" fill="white"/>
</clipPath>
</defs>
</svg>

<svg width="16" height="12" fill="none" xmlns="http://www.w3.org/2000/svg">
  <mask id="a" maskUnits="userSpaceOnUse" x="0" y="0" width="16" height="12">
    <path fill="#fff" d="M0 0h16v12H0z"/>
  </mask>
  <g mask="url(#a)">
    <path fill-rule="evenodd" clip-rule="evenodd" d="M0 0h16v12H0V0z" fill="#fff"/>
    <path fill-rule="evenodd" clip-rule="evenodd" d="M0 5.467V0h8L0 5.467z" fill="#FEDA00"/>
    <path fill-rule="evenodd" clip-rule="evenodd" d="M0 12h16.005V0L0 12z" fill="#00268D"/>
    <mask id="b" fill="#fff">
      <path fill-rule="evenodd" clip-rule="evenodd" d="M4.677 2.5l.263.566a2.2 2.2 0 011.936 2.129l.477.238-.521.261A2.202 2.202 0 014.96 7.432L4.677 8l-.284-.568a2.202 2.202 0 01-1.871-1.738L2 5.434l.477-.24a2.2 2.2 0 011.918-2.126l.282-.568z"/>
    </mask>
    <path fill-rule="evenodd" clip-rule="evenodd" d="M4.677 2.5l.263.566a2.2 2.2 0 011.936 2.129l.477.238-.521.261A2.202 2.202 0 014.96 7.432L4.677 8l-.284-.568a2.202 2.202 0 01-1.871-1.738L2 5.434l.477-.24a2.2 2.2 0 011.918-2.126l.282-.568z" fill="#fff"/>
    <path d="M4.94 3.066l-.453.21.117.253.277.033.06-.496zM4.677 2.5l.453-.211-.44-.943-.461.932.448.222zm2.199 2.695l-.5.012.008.3.268.135.224-.447zm.477.238l.224.448.894-.448-.894-.447-.224.447zm-.521.261l-.224-.447-.217.109-.049.238.49.1zM4.96 7.432l-.064-.496-.264.034-.12.238.448.224zM4.677 8l-.448.224.448.894.447-.894L4.677 8zm-.284-.568l.447-.224-.12-.238-.263-.034-.064.496zM2.522 5.694l.49-.1-.05-.238-.217-.11-.223.448zM2 5.434l-.224-.448-.894.447.894.448L2 5.433zm.477-.24l.224.448.269-.135.007-.3-.5-.012zm1.918-2.126l.064.496.265-.034.12-.24-.449-.222zm.998-.213l-.263-.566-.907.422.264.566.906-.422zm1.983 2.327A2.7 2.7 0 004.999 2.57l-.118.993a1.7 1.7 0 011.495 1.645l1-.025zm.2-.196L7.1 4.747l-.448.895.478.239.447-.895zm-.52 1.155l.52-.26-.446-.895-.522.26.447.895zM5.024 7.928a2.702 2.702 0 002.297-2.134l-.98-.2a1.702 1.702 0 01-1.445 1.342l.128.992zm-.511-.72l-.285.568.895.448.284-.569-.894-.447zm.61.568l-.284-.568-.895.447.284.569.895-.448zM2.032 5.794a2.702 2.702 0 002.297 2.134l.128-.992A1.702 1.702 0 013.01 5.594l-.98.2zm-.256.087l.522.26.447-.894-.521-.26-.448.894zm.478-1.134l-.478.24.448.894.477-.24-.447-.894zm2.078-2.175a2.7 2.7 0 00-2.354 2.61l1 .025a1.7 1.7 0 011.48-1.643l-.126-.992zm-.103-.294l-.282.568.896.444.282-.568-.896-.444z" fill="#000" mask="url(#b)"/>
    <path fill-rule="evenodd" clip-rule="evenodd" d="M4.688 4.15l-.325.545h-.64l.32.572-.32.548h.64l.325.56.33-.56h.634l-.312-.548.312-.572h-.635l-.33-.545z" fill="#F00A17"/>
  </g>
</svg>
